X:1
T:Partition sans titre
C:Compositeur / Arrangeur
L:1/8
M:4/4
I:linebreak $
K:D
V:1 treble nm="Violon" snm="Vln."
V:1
"D" Ad (3ddd"A" cdcB |"D" Ad (3ddd"A" cdcB |"D" Acde fded |"D" fdAd"Am" =cBcA |"C" GE=CE"D" FDDF | %5
"C" ED=CE"D" FD D2 ::"D" ABAG FEDF |"A" E2 CE A,ECE |"D" ABAG FEDF |"A" E2 CE"D" FD D2 :| %10
